packages/sources/assets/src/assets/flag-sr.svg

<svg width="28" height="20" viewBox="0 0 28 20" fill="none" xmlns="http://www.w3.org/2000/svg">
<rect x="0.25" y="0.25" width="27.5" height="19.5" rx="1.75" fill="white" stroke="#F5F5F5" stroke-width="0.5"/>
<mask id="mask0_503_4382" style="mask-type:alpha" maskUnits="userSpaceOnUse" x="0" y="0" width="28" height="20">
<rect x="0.25" y="0.25" width="27.5" height="19.5" rx="1.75" fill="white" stroke="white" stroke-width="0.5"/>
</mask>
<g mask="url(#mask0_503_4382)">
<path fill-rule="evenodd" clip-rule="evenodd" d="M0 4H28V0H0V4Z" fill="#43924C"/>
<path fill-rule="evenodd" clip-rule="evenodd" d="M0 20H28V16H0V20Z" fill="#43924C"/>
<path fill-rule="evenodd" clip-rule="evenodd" d="M0 13.3333H28V6.66666H0V13.3333Z" fill="#CD153A"/>
<path fill-rule="evenodd" clip-rule="evenodd" d="M13.9998 11.7L12.0406 13.0301L12.7001 10.7557L10.8296 9.30328L13.1965 9.22768L13.9998 7L14.8031 9.22768L17.17 9.30328L15.2996 10.7557L15.9591 13.0301L13.9998 11.7Z" fill="#F5D24B"/>
</g>
</svg>

<svg width="28" height="20" fill="none" xmlns="http://www.w3.org/2000/svg"><rect x=".25" y=".25" width="27.5" height="19.5" rx="1.75" fill="#fff" stroke="#F5F5F5" stroke-width=".5"/><mask id="a" style="mask-type:alpha" maskUnits="userSpaceOnUse" x="0" y="0" width="28" height="20"><rect x=".25" y=".25" width="27.5" height="19.5" rx="1.75" fill="#fff" stroke="#fff" stroke-width=".5"/></mask><g mask="url(#a)" fill-rule="evenodd" clip-rule="evenodd"><path d="M0 4h28V0H0v4Zm0 16h28v-4H0v4Z" fill="#43924C"/><path d="M0 13.333h28V6.667H0v6.666Z" fill="#CD153A"/><path d="m14 11.7-1.96 1.33.66-2.274-1.87-1.453 2.367-.075L14 7l.803 2.228 2.367.075-1.87 1.453.66 2.274L14 11.7Z" fill="#F5D24B"/></g></svg>
